Gurmukhi/0A66.svg

<svg enable-background="new 0 0 336 592" viewBox="0 0 336 592" xmlns="http://www.w3.org/2000/svg"><path d="m116.233749 314.523041c-5.687919-18.780518-5.521751-36.985596 1.260544-55.13266 16.153244-43.220474 72.476502-50.816361 102.053345-20.809326 22.796875 23.128479 29.089035 65.336609 13.8228 93.891815-11.083619 20.731659-32.498108 32.010467-55.962937 30.086822-30.904053-2.533508-50.312607-19.450775-61.173752-48.036651m33.062851-55.710449c-11.286972 19.037628-13.556106 39.101104-5.955337 59.886383 5.278869 14.435699 14.819015 24.889099 31.170151 25.583282 14.800033.628357 25.228118-7.303192 32.003952-20.026367 10.268966-19.282349 11.282409-39.481598 4.213272-59.882385-3.901535-11.259415-10.872849-20.41716-23.508423-23.025895-16.455673-3.397415-28.328018 3.874772-37.923615 17.464982z"/></svg>

<svg version="1.1" id="Layer_1" xmlns="http://www.w3.org/2000/svg" xmlns:xlink="http://www.w3.org/1999/xlink" x="0px" y="0px"
	 width="100%" viewBox="0 0 336 592" enable-background="new 0 0 336 592" xml:space="preserve">
<path fill="#000000" opacity="1.000000" stroke="none" 
	d="
M116.233749,314.523041 
	C110.545830,295.742523 110.711998,277.537445 117.494293,259.390381 
	C133.647537,216.169907 189.970795,208.574020 219.547638,238.581055 
	C242.344513,261.709534 248.636673,303.917664 233.370438,332.472870 
	C222.286819,353.204529 200.872330,364.483337 177.407501,362.559692 
	C146.503448,360.026184 127.094894,343.108917 116.233749,314.523041 
M149.296600,258.812592 
	C138.009628,277.850220 135.740494,297.913696 143.341263,318.698975 
	C148.620132,333.134674 158.160278,343.588074 174.511414,344.282257 
	C189.311447,344.910614 199.739532,336.979065 206.515366,324.255890 
	C216.784332,304.973541 217.797775,284.774292 210.728638,264.373505 
	C206.827103,253.114090 199.855789,243.956345 187.220215,241.347610 
	C170.764542,237.950195 158.892197,245.222382 149.296600,258.812592 
z"/>
</svg>
